X:7110
T:The Mountain Home
O:england
R:reel
C:Ed Reavy
M:2/2
L:1/8
N:There is a mountain road that leads to this secluded home
N:in the Irish hills. The hill people that live there cherish
N:the old values. The exile secretly weeps for what is gone
N:forever: his long lost mountain home.
K:G
GA|BcdB GFGB|A=FcF dFcF|BcdB GFGB|AGFG AGGA|
BcdB GFGB|A=FcF dFcF|BcdB GFGB|AGFA G2:||
Bc|dggf gbag|fd^cd fd=cA|dggf gbag|fdcA G2 AF|
Gggf gbag|fdcd =f2 fg|ag^fa gbag|fdcA G2:||


